!!!OTL: ES GRAEBT DER BERGMANN WOHL IN DEM SCHACHT
!!!ARE: Europa, Mitteleuropa, Deutschland, Schleswig - Holstein
!!!SCT: E1533
!!!YEM: Copyright 1995, estate of Helmut Schaffrath.
**kern
*ICvox
*Ivox
*M2/4
*k[]
*C:
{8G
=1
4c
4c
=2
4c
8E
8A
=3
4G
8D
8E
=4
4C
8r}
{8A
=5
8.G
16F
8.D
16F
=6
4E
8r}
{8A
=7
8.G
16F
8.D
16F
=8
4E
8r}
{8E
=9
4D
4B
=10
4.B
8B
=11
8.B
16A
8G
8F
=12
4E
8r}
{8G
=13
8.d
16G
8.G
16G
=14
8.A
16G
8G}
{8G
=15
8.E
16G
8.c
16G
=16
8.E
16G
8c}
{8G
=17
8.d
16G
8.G
16G
=18
8.A
16G
8G}
{8G
=19
8.E
16G
8.c
16G
=20
8.E
16G
8c}
{8G
=21
4.e
8d
=22
4.c
8G
=23
4B
4A
=24
4D
8r}
{8A
=25
8.A
16G
8.G
16G
=26
4A
4B
=27
4.c}
{8G
=28
4.e
8d
=29
4.c
8G
=30
4B
4A
=31
4D
8r}
{8A
=32
8.A
16G
8.G
16G
=33
4A
4B
=34
4.c}
==
!!!AGN: Staende -, Bergmanns - Lied
!!!ONB: ESAC (Essen Associative Code) Database: ERK3
!!!AMT: simple duple
!!!AIN: vox
!!!EED: Helmut Schaffrath
!!!EEV: 1.0
*-
